!!!OTL: Der Kuckuck (3-38), S. 100
!!!id: K1172
**kern
*clefG2
*k[b-]
*F:
{4cc
=1
8a
8f
8a
8cc
=2
8cc
8b-
4g}
=3
{8f
16f
16f
8f
8f
=4
8f
16f
16f
8a
16f
16f
=5
4c}
=6
{4cc
=7
8a
8f
8a
8cc
=8
8cc
8b-
4g
=9
4f}
==
*-
!!!minrhy: 16
!!!meters: 2/4 ]  ZZ[3
!!!cut: Der Kuckuck (3-38), S. 100
!!!reg: Luxemburg
!!!trd: KINTZELE, Guillaume: An der Ucht, Bd. 3 Luxemburg 1928
!!!rhy1: X__  X_X_X_X_  X_X_X__
!!!rhy2: X_XXX_X_  X_XXX_XX  X__
!!!key: K1172  16  F 2/4 ]  ZZ[3
!!!mod: PENTATONIK DUR ?]  AMBITUS[8
!!!kad: 2-51
!!!akz: 35_11-5_351_
!!!fot: 'a__b__av_
!!!for: 'a__b__aw_
!!!fok: 'Sd_^d_Sd_
!! PHRAS[VORWIEGEND AUFTAKTIG]
!!!fkt: Scherz-, Spiellied
!! KINTZELE
!! PR[31] 2K[3] 2G[9] 3K[2] 3G[5] 4A[5] 4Ü[0] 5A[1] 6K[0] 6G[0]
!! 7K[2] 7G[0] 8A[0] MEHR[0] SI[28] ABS[87] SR[13] SP[15]
!! ST[35] 2k[5] 2g[25] 3k[8] 3g[1] 4d[2] 4ü[0] 5d[0] 6k[0] 6g[0]
!! 7k[0] 7g[0] 8d[0] mehr[0] si[41] dm[-13] sr[30] sp[11]
!! 1F[2] 2F[60] 3F[16] 4F[5] LF[0] 2P[2] 3P[15] 4P[0] TRI[0] DF[6] AB[88]
!! TF[0] U3K[0] U3[0] U4[0] U4Ü[0] U5[0] U6K[0] U6[0] U7K[0] U7[2]
!! N1[1] N2K[0] N2[2] N3K[0] N3[6] N4[10] N4Ü[2] N5[32] N6K[0] N6[28]
!!!n7k: 0] N7[13] O1[3] O2K[0] O2[0] O3K[0] O3[0] HÖ[0
